X: 279
T: Litania de B.V. Mariae – Sancta Maria
C: Ferdinand Simon Lechleitner
L: 1/8
M: 3/4
N: Derived from pl-sa--288-a-vii-48--002_lechleitner-ferdinand-simon--litania-de-b-v-mariae-sancta-maria.krn
V: 1 clef=treble
V: 2 clef=treble
V: 3
V: 4 clef=alto
V: 5 clef=tenor
V: 6 clef=bass
V: 7 clef=treble
V: 8 clef=treble
V: 9 clef=bass
K: Bb
[V:1] x6 | 
[V:2] x6 | 
[V:3] z24 | 
[V:4] z24 | 
[V:5] x6 | 
[V:6] x6 | 
[V:7] z2g^f gd | 
[V:8] B4B2 | 
[V:9] G,,4G,2 | 
[V:1] x6 | 
[V:2] x6 | 
[V:3]  | 
[V:4]  | 
[V:5] x6 | 
[V:6] x6 | 
[V:7] a^fc2z/ e/d/c/ | 
[V:8] c2AcBA | 
[V:9] ^F,4D,2 | 
[V:1] x6 | 
[V:2] x6 | 
[V:3]  | 
[V:4]  | 
[V:5] x6 | 
[V:6] x6 | 
[V:7] B2c2d2 | 
[V:8] G2c2BA | 
[V:9] G,2A,2B,2 | 
[V:1] x6 | 
[V:2] x6 | 
[V:3]  | 
[V:4]  | 
[V:5] x6 | 
[V:6] x6 | 
[V:7] edegfe | 
[V:8] GFGedc | 
[V:9] C4F,2 | 
[V:1] x6 | 
[V:2] x6 | 
[V:3] z24 | 
[V:4] z24 | 
[V:5] x6 | 
[V:6] x6 | 
[V:7] dcdfed | 
[V:8] BABdcB | 
[V:9] B,4E,2 | 
[V:1] x6 | 
[V:2] x6 | 
[V:3]  | 
[V:4]  | 
[V:5] x6 | 
[V:6] x6 | 
[V:7] c2z2z2 | 
[V:8] AcccAc | 
[V:9] F,A,,A,,A,,F,,A,, | 
[V:1] x6 | 
[V:2] x6 | 
[V:3]  | 
[V:4]  | 
[V:5] x6 | 
[V:6] x6 | 
[V:7] z fffdf | 
[V:8] FdddBd | 
[V:9] B,,2z2D,2 | 
[V:1] x6 | 
[V:2] x6 | 
[V:3]  | 
[V:4]  | 
[V:5] x6 | 
[V:6] x6 | 
[V:7] ggegcg | 
[V:8] eeceGe | 
[V:9] C,4C,2 | 
[V:1] x6 | 
[V:2] x6 | 
[V:3] z12 | 
[V:4] z24 | 
[V:5] x6 | 
[V:6] x6 | 
[V:7] ^faaada | 
[V:8] A^fffAd | 
[V:9] D,4^F,2 | 
[V:1] x6 | 
[V:2] x6 | 
[V:3]  | 
[V:4]  | 
[V:5] x6 | 
[V:6] x6 | 
[V:7] g2g^fg2 | 
[V:8] d2BcdG | 
[V:9] G,2G,,A,,B,,2 | 
[V:1] x6 | 
[V:2] x6 | 
[V:3] z6 | 
[V:4]  | 
[V:5] x6 | 
[V:6] x6 | 
[V:7] A2A3G | 
[V:8] _E2D2^F2 | 
[V:9] C,2D,2D,,2 | 
[V:1] x6 | 
[V:2] x6 | 
[V:3] z2dB Gd | 
[V:4]  | 
[V:5] x6 | 
[V:6] x6 | 
[V:7] G2z2z2 | 
[V:8] G2z2z2 | 
[V:9] G,,G,G,G,G,G, | 
[V:1] x6 | 
[V:2] x6 | 
[V:3] c2cA ^Fc | 
[V:4] z24 | 
[V:5] x6 | 
[V:6] x6 | 
[V:7] z6 | 
[V:8] z6 | 
[V:9] A,A,A,A,A,A, | 
[V:1] x6 | 
[V:2] x6 | 
[V:3] B2G2z2 | 
[V:4]  | 
[V:5] x6 | 
[V:6] x6 | 
[V:7] z2z ggg | 
[V:8] z2z ddd | 
[V:9] B,B,,B,,B,,B,,B,, | 
[V:1] x6 | 
[V:2] x6 | 
[V:3] z12 | 
[V:4]  | 
[V:5] x6 | 
[V:6] x6 | 
[V:7] ggggaa | 
[V:8] eeeeee | 
[V:9] C,C,C,C,C,C, | 
[V:1] x6 | 
[V:2] x6 | 
[V:3]  | 
[V:4]  | 
[V:5] x6 | 
[V:6] x6 | 
[V:7] ^f2g^fg2 | 
[V:8] A2BcdD | 
[V:9] D,C,B,,A,,G,,2 | 
[V:1] x6 | 
[V:2] x6 | 
[V:3] z6 | 
[V:4] z24 | 
[V:5] x6 | 
[V:6] x6 | 
[V:7] A2!trill!A3G | 
[V:8] _E2D2^F2 | 
[V:9] C,2D,2D,,2 | 
[V:1] x6 | 
[V:2] x6 | 
[V:3] z2dB Gd | 
[V:4]  | 
[V:5] x6 | 
[V:6] x6 | 
[V:7] G2z2z2 | 
[V:8] G2z2z2 | 
[V:9] G,,G,G,G,G,G, | 
[V:1] x6 | 
[V:2] x6 | 
[V:3] c2cA ^F c | 
[V:4]  | 
[V:5] x6 | 
[V:6] x6 | 
[V:7] z24 | 
[V:8] z24 | 
[V:9] A,A,A,A,A,A, | 
[V:1] x6 | 
[V:2] x6 | 
[V:3] B A G d/c/ Bc/d/ | 
[V:4]  | 
[V:5] x6 | 
[V:6] x6 | 
[V:7]  | 
[V:8]  | 
[V:9] B,/A,/B,/A,/ G,G,G,,G, | 
[V:1] x6 | 
[V:2] x6 | 
[V:3] e/d/e/d/ c/d/e/d/ c/d/c/B/ | 
[V:4] z24 | 
[V:5] x6 | 
[V:6] x6 | 
[V:7]  | 
[V:8]  | 
[V:9] C,2z C,E,C, | 
[V:1] x6 | 
[V:2] x6 | 
[V:3] A2z c/B/ AB/c/ | 
[V:4]  | 
[V:5] x6 | 
[V:6] x6 | 
[V:7]  | 
[V:8]  | 
[V:9] F,/G,/A,/G,/ F,F,F,,F, | 
[V:1] x4x2 | 
[V:2] x4x2 | 
[V:3] d/c/ d/c/ B/c/d/c/ B/c/B/A/ | 
[V:4]  | 
[V:5] x6 | 
[V:6] x6 | 
[V:7] z12 | 
[V:8] z12 | 
[V:9] B,,2z B,,D,B,, | 
[V:1] x6 | 
[V:2] x6 | 
[V:3] G2z c/B/ AB/c/ | 
[V:4]  | 
[V:5] x6 | 
[V:6] x6 | 
[V:7]  | 
[V:8]  | 
[V:9] E,/F,/G,/F,/ E,C, F,E, | 
[V:1] x6 | 
[V:2] x6 | 
[V:3] d cd2c3/B/ | 
[V:4] z24 | 
[V:5] x6 | 
[V:6] x6 | 
[V:7] z6 | 
[V:8] z6 | 
[V:9] D,E,F,E,F,F,, | 
[V:1] x6 | 
[V:2] x6 | 
[V:3] B2z2z2 | 
[V:4]  | 
[V:5] x6 | 
[V:6] x6 | 
[V:7] z2BA BF | 
[V:8] z2D2D2 | 
[V:9] B,,2B,,2B,2 | 
[V:1] x6 | 
[V:2] x6 | 
[V:3] z24 | 
[V:4]  | 
[V:5] x6 | 
[V:6] x6 | 
[V:7] cA_E2z/ g/f/e/ | 
[V:8] _E2Cedc | 
[V:9] A,4G,2 | 
[V:1] x6 | 
[V:2] x6 | 
[V:3]  | 
[V:4]  | 
[V:5] x6 | 
[V:6] x6 | 
[V:7] dffeed | 
[V:8] BddccB | 
[V:9] B,,2B,2E,2 | 
[V:1] x6 | 
[V:2] x6 | 
[V:3]  | 
[V:4] z12 | 
[V:5] x6 | 
[V:6] x6 | 
[V:7] c/A/F/A/ c/A/F/A/ c/e/d/c/ | 
[V:8] A2z A A/G/F/E/ | 
[V:9] F,2z2A,,2 | 
[V:1] x6 | 
[V:2] x6 | 
[V:3]  | 
[V:4]  | 
[V:5] x6 | 
[V:6] x6 | 
[V:7] d/e/d/e/ fB FA | 
[V:8] DB/c/ dFCF | 
[V:9] B,,2F,2F,,2 | 
[V:1] x6 | 
[V:2] x6 | 
[V:3] z6 | 
[V:4] B,CDE FE | 
[V:5] x6 | 
[V:6] x6 | 
[V:7] B2z2z2 | 
[V:8] D2z2z2 | 
[V:9] B,,2B,2A,2 | 
[V:1] x6 | 
[V:2] x6 | 
[V:3] Bc d e f e | 
[V:4] D>CB,2z2 | 
[V:5] x6 | 
[V:6] x6 | 
[V:7] z24 | 
[V:8] z24 | 
[V:9] B,2B,,2A,,2 | 
[V:1] x6 | 
[V:2] x6 | 
[V:3] d> cB2z2 | 
[V:4] B,CDE FE | 
[V:5] x6 | 
[V:6] x6 | 
[V:7]  | 
[V:8]  | 
[V:9] B,,2B,,C,D,C, | 
[V:1] x6 | 
[V:2] x6 | 
[V:3] dc dB cd | 
[V:4] DE FD EF | 
[V:5] x6 | 
[V:6] x6 | 
[V:7]  | 
[V:8]  | 
[V:9] B,,2z D,C,B,, | 
[V:1] x6 | 
[V:2] x6 | 
[V:3] e2>d2e2 | 
[V:4] G2>F2G2 | 
[V:5] x6 | 
[V:6] x6 | 
[V:7]  | 
[V:8]  | 
[V:9] E,2z B,, E,C, | 
[V:1] x6 | 
[V:2] x6 | 
[V:3] cA cA Bc | 
[V:4] ED EC DE | 
[V:5] x6 | 
[V:6] x6 | 
[V:7] z24 | 
[V:8] z24 | 
[V:9] F,2z A,G,F, | 
[V:1] x6 | 
[V:2] x6 | 
[V:3] d2>c2d2 | 
[V:4] F2>E2F2 | 
[V:5] x6 | 
[V:6] x6 | 
[V:7]  | 
[V:8]  | 
[V:9] B,2z F, B,F, | 
[V:1] x6 | 
[V:2] x6 | 
[V:3] Bc Bc Bc | 
[V:4] DE DE DE | 
[V:5] x6 | 
[V:6] x6 | 
[V:7]  | 
[V:8]  | 
[V:9] B,,2z2B,,2 | 
[V:1] x6 | 
[V:2] x6 | 
[V:3] A2A B c d | 
[V:4] C2C D E F | 
[V:5] x6 | 
[V:6] x6 | 
[V:7]  | 
[V:8]  | 
[V:9] F,2z2F,,2 | 
[V:1] x6 | 
[V:2] x6 | 
[V:3] Bc Bcd2 | 
[V:4] DE DEF2 | 
[V:5] x6 | 
[V:6] x6 | 
[V:7] z12 | 
[V:8] z12 | 
[V:9] B,,2z2B,,2 | 
[V:1] x6 | 
[V:2] x6 | 
[V:3] c B2<!trill!B2A | 
[V:4] E DD2C3/B,/ | 
[V:5] x6 | 
[V:6] x6 | 
[V:7]  | 
[V:8]  | 
[V:9] E,2F,2F,,2 | 
[V:1] x6 | 
[V:2] x6 | 
[V:3] B2z2z2 | 
[V:4] B,2z2z2 | 
[V:5] x6 | 
[V:6] x6 | 
[V:7] z fdfc^f | 
[V:8] z dBdAc | 
[V:9] B,,2B,2A,2 | 
[V:1] x6 | 
[V:2] x6 | 
[V:3] z12 | 
[V:4] z24 | 
[V:5] x6 | 
[V:6] x6 | 
[V:7] gd bag2 | 
[V:8] dBdcBd | 
[V:9] G,2G,,A,,B,,2 | 
[V:1] x6 | 
[V:2] x6 | 
[V:3]  | 
[V:4]  | 
[V:5] x6 | 
[V:6] x6 | 
[V:7] a2d2^f2 | 
[V:8] e2A4 | 
[V:9] C,2D,2D,,2 | 
[V:1] x6 | 
[V:2] x6 | 
[V:3] d2de dc | 
[V:4]  | 
[V:5] x6 | 
[V:6] x6 | 
[V:7] g2z2z2 | 
[V:8] G2z2z2 | 
[V:9] G,,2G,2^F,2 | 
[V:1] x6 | 
[V:2] x6 | 
[V:3] B2>A2G2 | 
[V:4]  | 
[V:5] x6 | 
[V:6] x6 | 
[V:7] z12 | 
[V:8] z12 | 
[V:9] G,G,,G,,A,,B,,G,, | 
[V:1] x6 | 
[V:2] x6 | 
[V:3] e d c B A/B/ A/G/ | 
[V:4] z24 | 
[V:5] x6 | 
[V:6] x6 | 
[V:7]  | 
[V:8]  | 
[V:9] C,D,E,2C,2 | 
[V:1] x6 | 
[V:2] x6 | 
[V:3] ^F2A2B2 | 
[V:4]  | 
[V:5] x6 | 
[V:6] x6 | 
[V:7] z2^f2g2 | 
[V:8] z2A2B2 | 
[V:9] D,2z2z2 | 
[V:1] x6 | 
[V:2] x6 | 
[V:3] c2A2B2 | 
[V:4]  | 
[V:5] x6 | 
[V:6] x6 | 
[V:7] a2^f2g2 | 
[V:8] c2A2B2 | 
[V:9] D,2z2z2 | 
[V:1] x6 | 
[V:2] x6 | 
[V:3] cAB2z B | 
[V:4]  | 
[V:5] x6 | 
[V:6] x6 | 
[V:7] a^fg2z2 | 
[V:8] cAB2z2 | 
[V:9] D,2G,,2z2 | 
[V:1] x6 | 
[V:2] x6 | 
[V:3] Ac/B/ AB AG | 
[V:4] z24 | 
[V:5] x6 | 
[V:6] x6 | 
[V:7] z12 | 
[V:8] z12 | 
[V:9] C,4C,2 | 
[V:1] x6 | 
[V:2] x6 | 
[V:3] ^F>E D d/c/ B/A/B/A/ | 
[V:4]  | 
[V:5] x6 | 
[V:6] x6 | 
[V:7]  | 
[V:8]  | 
[V:9] D,4z G,/F,/ | 
[V:1] x6 | 
[V:2] x6 | 
[V:3] G c/B/ A G/A/^F2 | 
[V:4]  | 
[V:5] x6 | 
[V:6] x6 | 
[V:7] z6 | 
[V:8] z6 | 
[V:9] E,/D,/E,/D,/ C,A,, D,D,, | 
[V:1] x6 | 
[V:2] x6 | 
[V:3] G2z2z2 | 
[V:4]  | 
[V:5] x6 | 
[V:6] x6 | 
[V:7] z2g^f gd | 
[V:8] z2B2B2 | 
[V:9] G,,4G,2 | 
[V:1] x6 | 
[V:2] x6 | 
[V:3] z24 | 
[V:4] z24 | 
[V:5] x6 | 
[V:6] x6 | 
[V:7] a^fc2z/ e/d/c/ | 
[V:8] c2AcBA | 
[V:9] ^F,4D,2 | 
[V:1] x6 | 
[V:2] x6 | 
[V:3]  | 
[V:4]  | 
[V:5] x6 | 
[V:6] x6 | 
[V:7] B2c2d2 | 
[V:8] G2c2BA | 
[V:9] G,,2A,,2B,,2 | 
[V:1] x6 | 
[V:2] x6 | 
[V:3]  | 
[V:4]  | 
[V:5] x6 | 
[V:6] x6 | 
[V:7] edegfe | 
[V:8] GFGedc | 
[V:9] C,4F,2 | 
[V:1] x6 | 
[V:2] x6 | 
[V:3]  | 
[V:4]  | 
[V:5] x6 | 
[V:6] x6 | 
[V:7] dcdfed | 
[V:8] BABdcB | 
[V:9] B,,4E,2 | 
[V:1] x6 | 
[V:2] x6 | 
[V:3] z24 | 
[V:4] z24 | 
[V:5] x6 | 
[V:6] x6 | 
[V:7] c2z2z2 | 
[V:8] AcccAc | 
[V:9] F,A,,A,,A,,A,,A,, | 
[V:1] x6 | 
[V:2] x6 | 
[V:3]  | 
[V:4]  | 
[V:5] x6 | 
[V:6] x6 | 
[V:7] z fffdf | 
[V:8] FdddBd | 
[V:9] B,,2z2D,2 | 
[V:1] x6 | 
[V:2] x6 | 
[V:3]  | 
[V:4]  | 
[V:5] x6 | 
[V:6] x6 | 
[V:7] ggegcg | 
[V:8] eeceGe | 
[V:9] C,4C,2 | 
[V:1] x6 | 
[V:2] x6 | 
[V:3]  | 
[V:4]  | 
[V:5] x6 | 
[V:6] x6 | 
[V:7] ^faaada | 
[V:8] A^fffAd | 
[V:9] D,D,D,D,^F,F, | 
[V:1] x6 | 
[V:2] x6 | 
[V:3] z24 | 
[V:4] z24 | 
[V:5] x6 | 
[V:6] x6 | 
[V:7] g2g^fg2 | 
[V:8] d2BcdG | 
[V:9] G,2G,,A,,B,,2 | 
[V:1] x6 | 
[V:2] x6 | 
[V:3]  | 
[V:4]  | 
[V:5] x6 | 
[V:6] x6 | 
[V:7] A2!trill!A3G | 
[V:8] _E2D2^F2 | 
[V:9] C,2D,2D,,2 | 
[V:1] x6 | 
[V:2] x6 | 
[V:3]  | 
[V:4]  | 
[V:5] x6 | 
[V:6] x6 | 
[V:7] GGGG^FF | 
[V:8] G2DDDD | 
[V:9] G,,2z G,, D,D,, | 
[V:1] x6 |]  
[V:2] x6 |]  
[V:3]  |]  
[V:4]  |]  
[V:5] x6 |]  
[V:6] x6 |]  
[V:7] G6 |]  
[V:8] D6 |]  
[V:9] G,,6 |]  

